lib/brands/logos/amazon.svg

<svg xmlns="http://www.w3.org/2000/svg" fill="none" aria-hidden="true" viewBox="0 0 183 66"><g id="Amazon"><g id="Group"><g id="Union"><path fill="#FF9900" d="M104.894 42.5742C108.174 42.185 115.349 41.3339 116.628 42.9743C117.921 44.6306 115.194 51.4419 113.974 54.4867L113.972 54.4921C113.601 55.4154 114.396 55.7862 115.228 55.09C120.654 50.557 122.047 41.0597 120.942 39.69C119.837 38.3278 110.362 37.1548 104.588 41.2186C103.695 41.8391 103.847 42.7019 104.838 42.5808L104.894 42.5742Z"/><path fill="#FF9900" d="M75.0745 59.1992C87.682 59.1992 102.325 55.2262 112.428 47.7797C114.1 46.5386 112.67 44.6921 110.96 45.4186C99.6388 50.224 87.3264 52.5397 76.1339 52.5397C59.5382 52.5397 43.4723 47.9916 30.4787 40.4316C29.3436 39.7656 28.496 40.931 29.442 41.7862C41.482 52.6608 57.3966 59.1992 75.0745 59.1992Z"/></g><g id="Union_2"><path fill="black" fill-rule="evenodd" d="M96.3925 37.1018C96.0368 37.4197 95.5222 37.4424 95.1211 37.2305C93.6012 35.9681 93.1391 35.2813 92.4334 34.2324C92.3099 34.0489 92.1789 33.8542 92.0336 33.6435C89.0822 36.6554 86.986 37.5559 83.1643 37.5559C78.6314 37.5559 75.1124 34.7635 75.1124 29.171C75.1124 24.8045 77.4735 21.8305 80.8487 20.3775C83.2978 19.2989 86.5609 18.965 89.389 18.6756C89.934 18.6199 90.4628 18.5658 90.9665 18.5083V17.8121C90.9665 17.6819 90.9675 17.5492 90.9686 17.4148C90.9777 16.2292 90.9879 14.9072 90.3081 13.9148C89.6573 12.9234 88.4011 12.5148 87.2887 12.5148C85.2379 12.5148 83.4141 13.5667 82.9676 15.7461C82.8768 16.2305 82.5211 16.7072 82.0292 16.7299L76.8151 16.1699C76.3762 16.0715 75.8843 15.7159 76.013 15.0424C77.2087 8.71586 82.9298 6.80882 88.0454 6.80882C90.6638 6.80882 94.0844 7.50504 96.1503 9.48775C98.5574 11.7348 98.5406 14.6726 98.5222 17.8895C98.5206 18.1719 98.519 18.4565 98.519 18.7429V27.1278C98.519 29.3776 99.3514 30.4995 100.23 31.6836C100.335 31.8257 100.442 31.9688 100.547 32.1148C100.888 32.5991 100.963 33.1818 100.524 33.5451C99.427 34.4608 97.4746 36.1635 96.4 37.117L96.3925 37.1018ZM90.9665 23.9872C90.9665 24.0832 90.9666 24.1784 90.9667 24.273C90.969 26.2437 90.971 27.9168 89.96 29.6932C89.1049 31.2067 87.7427 32.1375 86.2368 32.1375C84.1708 32.1375 82.96 30.5635 82.96 28.2402C82.96 23.6543 87.0692 22.8218 90.9665 22.8218V23.9872Z" clip-rule="evenodd"/><path fill="black" d="M35.1707 37.1775H40.5513C41.1264 37.1775 41.588 36.731 41.588 36.1786V21.5429C41.588 21.4283 41.5878 21.3121 41.5876 21.1946C41.5823 18.0379 41.5754 13.9299 45.3037 13.9299C48.7353 13.9299 48.6767 17.5849 48.629 20.5608C48.6236 20.899 48.6183 21.2287 48.6183 21.5429L48.6259 36.1786C48.6259 36.7083 49.0497 37.1397 49.5945 37.1775H54.9675C55.5426 37.1775 56.0043 36.731 56.0043 36.1786V21.5429C56.0043 21.4207 56.0039 21.2938 56.0036 21.1631C55.9997 19.6184 55.9944 17.537 56.5037 16.2532C57.0561 14.8607 58.4183 13.9905 59.7199 13.9905C61.2789 13.9905 62.4821 14.5126 62.8832 16.3667C63.0903 17.256 63.0621 19.3123 63.0432 20.6885C63.0386 21.022 63.0345 21.3156 63.0345 21.5429V36.1786C63.0345 36.7083 63.4659 37.1397 64.0032 37.1775H69.3762C69.9513 37.1775 70.4129 36.731 70.4129 36.1786L70.4205 18.7505C70.4205 18.3255 70.4277 17.892 70.4349 17.4542L70.4349 17.4535C70.4782 14.8433 70.5239 12.0826 69.0659 10.0932C67.56 8.00451 65.0929 7.0737 62.8378 7.0737C59.667 7.0737 56.708 8.70072 55.4064 12.1894C53.8929 8.70072 51.7891 7.0737 48.4215 7.0737C45.1069 7.0737 42.6475 8.70072 41.3383 12.1894H41.2399V8.57964C41.2021 8.08018 40.7859 7.67909 40.2637 7.6564H35.2464C34.6713 7.6564 34.2096 8.09532 34.2096 8.64776V36.2618C34.2475 36.7537 34.6561 37.1397 35.1707 37.1775Z"/><path fill="black" d="M105.065 8.57962V12.5299C105.065 13.1202 105.519 13.5213 106.086 13.5213H115.326L104.709 28.7472C104.066 29.7234 104.058 30.8207 104.058 31.464V35.4672C104.058 36.0424 104.702 36.7083 105.315 36.3753C111.331 33.1818 118.558 33.4921 123.999 36.3451C124.665 36.6932 125.301 36.0197 125.301 35.4445V31.2294C125.248 30.6618 125.058 30.0867 124.362 29.6932C121.275 27.9526 117.68 27.4456 114.275 27.5288L123.439 14.4445C124.286 13.2715 124.763 12.5299 124.771 11.9623V8.57962C124.771 7.98935 124.317 7.5807 123.749 7.5807H106.064C105.519 7.5807 105.065 7.98178 105.065 8.57962Z"/><path fill="black" fill-rule="evenodd" d="M139.997 7.0737C147.981 7.0737 152.302 13.9299 152.302 22.6478C152.302 31.0705 147.527 37.7527 139.997 37.7527C132.157 37.7527 127.889 30.8964 127.889 22.3526C127.889 13.7559 132.21 7.0737 139.997 7.0737ZM140.042 12.7115C136.077 12.7115 135.827 18.1148 135.827 21.4824L135.827 21.6063C135.826 25.0305 135.825 32.0618 139.997 32.0618C144.167 32.0618 144.363 26.2499 144.363 22.7083C144.363 20.3775 144.265 17.5926 143.561 15.3829C142.956 13.4607 141.752 12.7115 140.042 12.7115Z" clip-rule="evenodd"/><path fill="black" d="M157.296 37.1775H162.654C163.229 37.1775 163.698 36.731 163.706 36.1786V21.3083C163.706 19.4467 163.804 17.7667 164.561 16.0791C165.159 14.7472 166.362 13.8694 167.671 13.8694C171.101 13.8694 171.069 17.634 171.043 20.5881C171.041 20.8347 171.039 21.0757 171.039 21.3083V36.3073C171.092 36.7764 171.501 37.1397 171.993 37.1775H177.388C177.918 37.1775 178.364 36.7916 178.425 36.3073V18.9245C178.425 16.2532 178.425 12.5375 177.017 10.3278C175.504 7.94397 173.15 7.0737 170.736 7.0737C167.021 7.0737 164.909 8.87478 163.403 12.651H163.305V8.42829C163.199 7.99694 162.813 7.67909 162.344 7.6564H157.357C156.812 7.6564 156.366 8.04991 156.32 8.55694L156.328 36.1786C156.328 36.7083 156.759 37.1397 157.296 37.1775Z"/><path fill="black" fill-rule="evenodd" d="M24.5837 37.2305C24.9848 37.4424 25.4994 37.4197 25.855 37.1019L25.8702 37.117C26.9448 36.1635 28.8972 34.4608 29.9945 33.5451C30.4334 33.1819 30.3577 32.5992 30.0096 32.1149C29.9042 31.9688 29.798 31.8258 29.6925 31.6836C28.8139 30.4995 27.9815 29.3777 27.9815 27.1278V18.7429C27.9815 18.4565 27.9831 18.1719 27.9848 17.8895C28.0031 14.6726 28.0199 11.7349 25.6129 9.48779C23.5469 7.50509 20.1264 6.80887 17.508 6.80887C12.3923 6.80887 6.67878 8.7159 5.47554 15.0424C5.35446 15.7159 5.83878 16.0716 6.2777 16.17L11.4993 16.73C11.9837 16.7073 12.3393 16.2305 12.4301 15.7462C12.8766 13.5667 14.708 12.5148 16.7588 12.5148C17.8637 12.5148 19.1199 12.9235 19.7783 13.9148C20.4506 14.9063 20.4403 16.2269 20.4312 17.4117C20.4301 17.5472 20.4291 17.6809 20.4291 17.8121V18.5083C19.9253 18.5658 19.3965 18.6199 18.8515 18.6757C16.0234 18.965 12.7604 19.2989 10.3112 20.3775C6.94365 21.8305 4.575 24.8046 4.575 29.1711C4.575 34.7635 8.10148 37.5559 12.6269 37.5559C16.4561 37.5559 18.5447 36.6554 21.4961 33.6435C21.6518 33.8675 21.7909 34.0733 21.9217 34.2669C22.6173 35.2966 23.0804 35.9821 24.5837 37.2305ZM20.4293 24.273C20.4292 24.1785 20.4291 24.0832 20.4291 23.9873V22.8219C16.5393 22.8219 12.4301 23.6543 12.4301 28.2402C12.4301 30.5635 13.6334 32.1376 15.6993 32.1376C17.2129 32.1376 18.5674 31.2067 19.4226 29.6932C20.4335 27.9168 20.4316 26.2438 20.4293 24.273Z" clip-rule="evenodd"/></g></g></g></svg>

<svg xmlns="http://www.w3.org/2000/svg" fill="none" aria-hidden="true" viewBox="0 0 183 66"><g fill="#F90"><path d="M104.894 42.574c3.28-.389 10.455-1.24 11.734.4 1.293 1.657-1.434 8.468-2.654 11.513l-.002.005c-.371.923.424 1.294 1.256.598 5.426-4.533 6.819-14.03 5.714-15.4-1.105-1.362-10.58-2.535-16.354 1.529-.893.62-.741 1.483.25 1.362l.056-.007Z"/><path d="M75.075 59.2c12.607 0 27.25-3.974 37.353-11.42 1.672-1.241.242-3.088-1.468-2.361-11.321 4.805-23.634 7.12-34.826 7.12-16.596 0-32.662-4.547-45.655-12.107-1.135-.666-1.983.499-1.037 1.354C41.482 52.661 57.397 59.2 75.075 59.2Z"/></g><g fill="#000"><path fill-rule="evenodd" d="M96.392 37.102c-.355.318-.87.34-1.27.129-1.52-1.263-1.983-1.95-2.689-2.999-.123-.183-.254-.378-.4-.588-2.95 3.011-5.047 3.912-8.869 3.912-4.533 0-8.052-2.792-8.052-8.385 0-4.366 2.362-7.34 5.737-8.793 2.449-1.08 5.712-1.413 8.54-1.702.545-.056 1.074-.11 1.578-.168v-.696c0-.13 0-.263.002-.397.009-1.186.019-2.508-.66-3.5-.652-.992-1.908-1.4-3.02-1.4-2.051 0-3.875 1.052-4.321 3.231-.091.484-.447.961-.939.984l-5.214-.56c-.439-.099-.93-.454-.802-1.128C77.209 8.716 82.93 6.81 88.045 6.81c2.619 0 6.04.696 8.105 2.679 2.407 2.247 2.39 5.185 2.372 8.402-.001.282-.003.566-.003.853v8.385c0 2.25.832 3.372 1.711 4.556.105.142.212.285.317.43.341.485.416 1.068-.023 1.431-1.097.916-3.05 2.618-4.124 3.572l-.008-.015Zm-5.425-13.115v.286c.002 1.97.004 3.644-1.007 5.42-.855 1.514-2.217 2.445-3.723 2.445-2.066 0-3.277-1.574-3.277-3.898 0-4.586 4.11-5.418 8.007-5.418v1.165Z" clip-rule="evenodd"/><path d="M35.17 37.178h5.381c.575 0 1.037-.447 1.037-1V21.196c-.006-3.157-.013-7.265 3.716-7.265 3.431 0 3.373 3.655 3.325 6.63-.005.339-.01.669-.01.983l.007 14.636c0 .53.424.96.968.998h5.373c.576 0 1.037-.446 1.037-.998V21.163c-.004-1.545-.01-3.626.5-4.91.552-1.392 1.914-2.262 3.216-2.262 1.559 0 2.762.522 3.163 2.376.207.889.18 2.945.16 4.322-.004.333-.008.627-.008.854v14.636c0 .53.43.96.968.998h5.373c.575 0 1.037-.446 1.037-.998l.008-17.429c0-.424.007-.858.014-1.296.043-2.61.089-5.371-1.37-7.36-1.505-2.09-3.972-3.02-6.227-3.02-3.171 0-6.13 1.627-7.432 5.115-1.513-3.488-3.617-5.115-6.984-5.115-3.315 0-5.774 1.627-7.084 5.115h-.098V8.58a1.014 1.014 0 0 0-.976-.923h-5.018c-.575 0-1.036.44-1.036.992v27.614c.038.492.446.878.96.916ZM105.065 8.58v3.95c0 .59.454.991 1.021.991h9.24l-10.617 15.226c-.643.976-.651 2.074-.651 2.717v4.003c0 .575.644 1.241 1.257.908 6.016-3.193 13.243-2.883 18.684-.03.666.348 1.302-.325 1.302-.9v-4.216c-.053-.567-.243-1.142-.939-1.536-3.087-1.74-6.682-2.247-10.087-2.164l9.164-13.085c.847-1.173 1.324-1.914 1.332-2.482V8.58c0-.59-.454-1-1.022-1h-17.685c-.545 0-.999.402-.999 1Z"/><path fill-rule="evenodd" d="M139.997 7.074c7.984 0 12.305 6.856 12.305 15.574 0 8.422-4.775 15.105-12.305 15.105-7.84 0-12.108-6.857-12.108-15.4 0-8.597 4.321-15.28 12.108-15.28Zm.045 5.637c-3.965 0-4.215 5.404-4.215 8.771v.124c-.001 3.424-.002 10.456 4.17 10.456 4.17 0 4.366-5.812 4.366-9.354 0-2.33-.098-5.115-.802-7.325-.605-1.922-1.809-2.671-3.519-2.671Z" clip-rule="evenodd"/><path d="M157.296 37.178h5.358c.575 0 1.044-.447 1.052-1v-14.87c0-1.861.098-3.541.855-5.229.598-1.332 1.801-2.21 3.11-2.21 3.43 0 3.398 3.765 3.372 6.72-.002.246-.004.487-.004.72v14.998c.053.47.462.833.954.87h5.395c.53 0 .976-.385 1.037-.87V18.924c0-2.67 0-6.386-1.408-8.596-1.513-2.384-3.867-3.254-6.281-3.254-3.715 0-5.827 1.8-7.333 5.577h-.098V8.428a1.03 1.03 0 0 0-.961-.772h-4.987c-.545 0-.991.394-1.037.9l.008 27.623c0 .53.431.96.968.998Z"/><path fill-rule="evenodd" d="M24.584 37.23c.4.212.915.19 1.271-.128l.015.015a228.461 228.461 0 0 1 4.124-3.572c.44-.363.364-.946.016-1.43-.106-.146-.212-.29-.318-.431-.878-1.184-1.71-2.306-1.71-4.556v-8.385c0-.287.001-.571.003-.853.018-3.217.035-6.155-2.372-8.402-2.066-1.983-5.487-2.68-8.105-2.68-5.116 0-10.83 1.908-12.032 8.234-.122.674.363 1.03.802 1.128l5.221.56c.485-.023.84-.5.931-.984.447-2.18 2.278-3.231 4.329-3.231 1.105 0 2.36.409 3.02 1.4.672.991.661 2.312.652 3.497l-.002.4v.696c-.504.058-1.032.112-1.577.168-2.829.289-6.092.623-8.54 1.702-3.368 1.453-5.737 4.427-5.737 8.793 0 5.593 3.526 8.385 8.052 8.385 3.83 0 5.918-.9 8.87-3.912.155.224.294.43.425.623.695 1.03 1.158 1.715 2.662 2.963Zm-4.155-12.957v-1.451c-3.89 0-7.999.832-7.999 5.418 0 2.324 1.203 3.898 3.27 3.898 1.513 0 2.867-.931 3.723-2.445 1.01-1.776 1.009-3.45 1.006-5.42Z" clip-rule="evenodd"/></g></svg>
